X: 13278
T: Five Servants, The
R: polka
M: 2/4
K: Gmajor
DE|F F/E/ FA|G G/F/ GB|AB ^cd|e/f/g/f/ ed|
B^c dB|A/B/A/G/ FA|GE FE|D2:|
g2|fd fd|fd f/g/a/f/|e e/f/ ed|e/f/g/f/ ed|
B^c dB|A/B/A/G/ FA|GE FE|D2:|

